X:4354
T:Downfall of Paris,The,1st part. JNu.38
M:2/4
L:1/16
Q:100
S:James Nuttall MS,c1830,Rossendale,East Lancs.
R:Air
O:England
A:East Lancashire
Z:Chris Partington
K:D Major
"primo"d2de d2de|d2de gfed|e2ef e2ef|e2ef agfe|!
f2fg f2fg|f2fg bagf|e2ef e2e2|edcB ABcA|!
d2de d2de|d2de gfed|e2ef e2ef|e2ef agfe|!
f2fg a2g2|f2fg a2g2|f2fd e2ec|d4d2z2:|!
|:"p"a8|a2g2 b2a2|g2gf g2gf|g2gfg4|!
g8|g2e2 a2g2|f2fe f2fe|f2fef4|!
"f"d2de d2de|d2de gfed|e2ef e2ef|e2ef agfe|!
f2fg a2g2|f2fg a2g2|f2fe e2ec|d2d2d2"p"z2:|!
|:"p"abc'd' c'bag|fgab agfe|"f"d2dd e2ee|f2f2 e2z2|!
"p"abc'd' c'bag|fgab agfe|"f"d2de f2e2|d2d2d2z2:|!
|:c2d2e2f2|g2f2e2d2|c2d2e2f2|g2f2e2z2|!
"p"abc'd' c'bag|fgab agfe|"f"d2ee f2e2|d2[d2d'2][d2d'2]|]
